X:435
T: Auf, auf, ihr Hirten, laát das Feld (5-31), S. 53f
N: P0705V
O: Lothringen
S: MERKELBACH-PINCK, Angelika: Verklingende Weisen, Bd 5, Kassel 1962]
R: geistliches, religiöses Lied]
M: 4/4
L: 1/8
K: D
 | d4c2Bd | c2BAB2c2 | d4z4
d4c2Bd | c2BAB2c2 | d4z4
d3ed2A2 | A2F2A3G | F4z4
B3cB2A2 | B2A2B2c2 | d2cBA2z
A | d3cd2e2 | f4e3d | d4z4

